picto/call-for-help-framed.svg

<svg class="color-immutable" width="30" height="30" viewBox="0 0 30 30" fill="none" xmlns="http://www.w3.org/2000/svg"><path d="M0 0H30V30H0V0Z" fill="#2D327D"/><path d="M25.5 3C26.325 3 27 3.675 27 4.5V25.5C27 26.325 26.325 27 25.5 27H4.5C3.675 27 3 26.325 3 25.5V4.5C3 3.675 3.675 3 4.5 3H25.5ZM25.5 2.625H4.5C3.46613 2.625 2.625 3.46613 2.625 4.5V25.5C2.625 26.5339 3.46613 27.375 4.5 27.375H25.5C26.5339 27.375 27.375 26.5339 27.375 25.5V4.5C27.375 3.46613 26.5339 2.625 25.5 2.625Z" fill="white"/><path d="M22.6495 18.0721C22.6426 17.5142 22.3204 17.0326 21.8527 16.7966C21.841 16.7909 21.8292 16.7851 21.8172 16.7791C21.0263 16.3861 19.6839 15.4465 19.6839 13.5967C19.6839 11.3599 19.5241 10.1762 19.1141 9.37485C18.6594 8.48602 17.8804 8.0811 16.597 8.06572C16.6161 7.73392 16.6274 7.01355 16.177 6.4935C15.982 6.26835 15.6195 6 15 6C14.3805 6 14.018 6.26835 13.823 6.4935C13.3726 7.01355 13.384 7.73392 13.403 8.06572C12.1197 8.0811 11.3407 8.48602 10.8859 9.37485C10.4759 10.1763 10.3162 11.3599 10.3162 13.5967C10.3162 15.4465 8.97373 16.3861 8.18285 16.7791C8.17085 16.7851 8.159 16.7909 8.1473 16.7966C7.67968 17.0325 7.35748 17.5141 7.3505 18.0721L7.34998 19.1567H22.65L22.6495 18.0721ZM14.4026 6.99548C14.536 6.84158 14.7313 6.76672 15 6.76672C15.2687 6.76672 15.4641 6.84158 15.5974 6.99548C15.8523 7.28978 15.834 7.83375 15.8299 8.0643H14.17C14.166 7.83368 14.1477 7.2897 14.4026 6.99548Z" fill="white"/><path d="M13.4684 19.5392C13.4283 19.679 13.4062 19.8265 13.4062 19.9791C13.4062 20.8593 14.1198 21.5728 15 21.5728C15.8802 21.5728 16.5938 20.8593 16.5938 19.9791C16.5938 19.8264 16.5717 19.679 16.5316 19.5392H13.4684Z" fill="white"/></svg>

<svg class="color-immutable" width="30" height="30" viewBox="0 0 30 30" fill="none" xmlns="http://www.w3.org/2000/svg"><g clip-path="url(#a)"><path d="M0 0h30v30H0V0Z" fill="#2D327D"/><path d="M25.5 3c.825 0 1.5.675 1.5 1.5v21c0 .825-.675 1.5-1.5 1.5h-21c-.825 0-1.5-.675-1.5-1.5v-21C3 3.675 3.675 3 4.5 3h21Zm0-.375h-21A1.877 1.877 0 0 0 2.625 4.5v21c0 1.034.841 1.875 1.875 1.875h21a1.877 1.877 0 0 0 1.875-1.875v-21A1.877 1.877 0 0 0 25.5 2.625Z" fill="#fff"/><path d="M22.65 18.072a1.448 1.448 0 0 0-.833-1.293c-.79-.393-2.133-1.332-2.133-3.182 0-2.237-.16-3.42-.57-4.222-.455-.889-1.234-1.294-2.517-1.31.02-.331.03-1.051-.42-1.571C15.982 6.268 15.62 6 15 6s-.982.268-1.177.494c-.45.52-.439 1.24-.42 1.572-1.283.015-2.062.42-2.517 1.309-.41.801-.57 1.985-.57 4.222 0 1.85-1.342 2.79-2.133 3.182a1.448 1.448 0 0 0-.832 1.293l-.001 1.085h15.3v-1.085ZM14.402 6.995c.133-.153.328-.228.597-.228.269 0 .464.075.597.228.255.295.237.839.233 1.07h-1.66c-.004-.231-.022-.775.233-1.07ZM13.468 19.54a1.593 1.593 0 1 0 3.064 0h-3.064Z" fill="#fff"/></g><defs><clipPath id="a"><path fill="#fff" d="M0 0h30v30H0z"/></clipPath></defs></svg>
